X: 11465
T: Ec Kiare Bleeaney Jeig Dy Eash
R: reel
M: 4/4
K: Dmajor
A2|d2d2 B2B2|A4A2 A2|B2 d2d2 d2|
g2 g2 f2e2|f4B2 d2|e2e2 e2 f2|
a2 a2 f2 e2|d4 Ac dd|B2 B2 A2 B2|
A2 Bc d2 ef|g4 f4|e2 e2 d2||

